X: 1
T:Strathspey  " "
M:C
L:1/8
Q:80
C:/JHP
S:THE EWE WITH THE CROOKED HORN
K:HP
| e|
{g}A2{GdGe}A3/2{d}B/2{g}G3/2A/2{gBd}B/2{e}G3/2|
{g}A2{GdGe}A3/2B/2{Gdc}d/2{e}B3/2{gcd}c/2{e}A3/2|
{Gdc}d3/2c/2{gBd}B3/2A/2{g}G3/2A/2{gBd}B/2{e}G3/2|  !
{g}A2{GdGe}A3/2{d}c/2{gBd}B/2{e}G3/2{g}A2| |
{g}A2{GdGe}A3/2{d}B/2{g}G3/2A/2{gBd}B/2{e}G3/2|
{g}A2{GdGe}A3/2B/2{Gdc}d/2{e}B3/2{gcd}c/2{d}A3/2|  !
{g}B/2c/2d{gcd}c/2e3/2{Gdc}d3/2c/2{gBd}B/2{e}G3/2|
{g}A2{GdGe}A3/2{d}c/2{gBd}B/2{e}G3/2{g}A|] |
{GdG}e2{A}e3/2f/2{Gdc}d3/2e/2{gde}d3/2B/2|  !
{GdG}e2{A}e3/2f/2{gf}g3/2e/2{gfg}f3/2d/2|
{g}c/2e3/2{A}e3/2f/2{Gdc}d3/2e/2{gde}d3/2B/2|
{GdG}e2{A}e3/2g/2{fg}f3/2d/2{gef}e2| |  !
{GdG}e2{A}e3/2f/2{Gdc}d3/2e/2{gde}d3/2B/2|
{GdG}e2{A}e3/2f/2{gf}g3/2e/2{ag}a3/2e/2|
{gf}g3/2a/2g/2f/2e{Gdc}d3/4{e}G3/2{de}d/2{e}B3/2|  !
{GdG}a2{f}g3/2e/2{gfg}f3/2d/2{gef}e2|] |
{g}A/2d3/2{gdc}d3/2e/2{g}c3/2d/2{gef}e3/2c/2|
{g}A/2d3/2{gdc}d3/2f/2{gf}g3/2e/2{gfg}f3/2d/2|  !
{g}A/2d3/2{gdc}d3/2e/2{g}c3/2d/2{gef}e3/2c/2|
{g}A/2d3/2{gdc}d3/2f/2{gef}e3/2c/2{Gdc}d2|
